packages/ui/public/icons/sidebar-logout-icon.svg

<svg width="24" height="24" viewBox="0 0 24 24" fill="none" xmlns="http://www.w3.org/2000/svg">
<g clip-path="url(#clip0_176_8)">
<path d="M16 17L21 12M21 12L16 7M21 12H9M12 17C12 17.93 12 18.395 11.898 18.776C11.7617 19.2849 11.4939 19.7489 11.1214 20.1214C10.7489 20.4939 10.2849 20.7617 9.776 20.898C9.395 21 8.93 21 8 21H7.5C6.102 21 5.403 21 4.852 20.772C4.48791 20.6212 4.15709 20.4002 3.87844 20.1216C3.59979 19.8429 3.37877 19.5121 3.228 19.148C3 18.597 3 17.898 3 16.5V7.5C3 6.102 3 5.403 3.228 4.852C3.37877 4.48791 3.59979 4.15709 3.87844 3.87844C4.15709 3.59979 4.48791 3.37877 4.852 3.228C5.403 3 6.102 3 7.5 3H8C8.93 3 9.395 3 9.776 3.102C10.2849 3.23825 10.7489 3.5061 11.1214 3.8786C11.4939 4.2511 11.7617 4.71513 11.898 5.224C12 5.605 12 6.07 12 7" stroke="white"/>
</g>
<defs>
<clipPath id="clip0_176_8">
<rect width="20" height="20" fill="white" transform="translate(2 2)"/>
</clipPath>
</defs>
</svg>

<svg width="24" height="24" fill="none" xmlns="http://www.w3.org/2000/svg"><g clip-path="url(#a)"><path d="m16 17 5-5m0 0-5-5m5 5H9m3 5c0 .93 0 1.395-.102 1.776a3 3 0 0 1-2.122 2.122C9.395 21 8.93 21 8 21h-.5c-1.398 0-2.097 0-2.648-.228a3.001 3.001 0 0 1-1.624-1.624C3 18.597 3 17.898 3 16.5v-9c0-1.398 0-2.097.228-2.648a3 3 0 0 1 1.624-1.624C5.403 3 6.102 3 7.5 3H8c.93 0 1.395 0 1.776.102a3 3 0 0 1 2.122 2.122C12 5.605 12 6.07 12 7" stroke="#fff"/></g><defs><clipPath id="a"><path fill="#fff" transform="translate(2 2)" d="M0 0h20v20H0z"/></clipPath></defs></svg>
